X:1
T:Ave Maria - Lutz
T:#
%%score { 1 | 2 } 3 4 { ( 5 7 ) | ( 6 8 ) }
L:1/8
Q:1/4=72
M:6/8
K:C
V:1 treble nm="Soprano I" snm="S1"
V:2 treble 
V:3 treble-8 nm="Tenor" snm="T"
V:4 bass nm="Bass" snm="B"
V:5 bass nm="Organ"
V:7 bass 
V:6 bass 
V:8 bass 
V:1
"^Ave Maria""^W. Meyer Lutz\n(1829-1903)"!mf! !>!G3 E2 z | !>!c3 A2 F | D3- DGF |!>(! E3!>)! D2 z | %4
w: A- ve,|A- ve Ma-|ri\- * a, Ma-|ri- a,|
 E3-!<(! E^F!<)!^G |[M:6/8]!<(! (A2 c)!<)! e3 |!>(! d3- d>AB!>)! | A3 G3 |!<(! (A3- Ad)!<)!c | %9
w: gra\- * ti- a|ple\- * na:|Do\- * mi- nus|te- cum:|be\- * * ne-|
 c2 B A2 G | (A3- Ad)c | c2 B A2!f! G | !>!e3 !>!e3 | e2 c A2 F | %14
w: di- cta tu in|mu\- * * li-|e- ri- bus, et|be- ne-|di- ctus fru- ctus|
 E2 E[Q:1/4=70] F2"^rall."[Q:1/4=68] D |[Q:1/4=65] !>!D3[Q:1/4=64] C3 |!p! (D3- DA)G | %17
w: ven- tris tu- i,|Je- sus.|Be\- * * ne-|
[Q:1/4=64][Q:1/4=64][Q:1/4=64][Q:1/4=64] B2 B B3 | B3- BcB | d2 d d3 | (^fed) (cBA) | e3 d3 | %22
w: di- cta tu|in * mu- li-|e- ri- bus,|be\- * * ne\- * *|di- ctus|
 (dc)B (AB)c | (G2 A) ^F3 | D3- DAG | B3"^cresc." B3 | (B3- Bc)B | d3 d3 | d3- d (ed) | %29
w: fru\- * ctus ven\- * tris|tu\- * i.|Et * be- ne-|di- ctus|fru\- * * ctus|ven- tris,|ven\- * tris *|
!f! !>!f3 !>!f3 | (f3- f2 d) |[Q:1/4=62]!>(! (B3"^rall."[Q:1/4=59] A3)!>)! | %32
w: tu- i,|Je\- * *|sus. *|
!p![Q:1/4=58] !>!G3 E2 z |[Q:1/4=58][Q:1/4=58][Q:1/4=58][Q:1/4=58] c3 A2 F | D3- DGF | %35
w: San- cta,|San- cta Ma-|ri\- * a, Ma-|
!>(! E3 D3!>)! | (E3- E^F)^G | (A2 c) e3 | d3- dAB | A3 G3 |!<(! A3- Ad!<)!c | %41
w: ri- a,|ma\- * * ter|De\- * i,|o\- * ra pro|no- bis,|o\- * ra pro|
!>(! (c2 B) (A2!>)! G) |!<(! (A3- Ad)!<)!c | c2 B (A2 G) |!f! e3 e2 e | (e2 c) (A2 F) | E2 E F2 D | %47
w: no\- * bis *|pec\- * * ca-|to- ri- bus, *|nunc et in|ho\- * ra *|mor- tis no- strae,|
 !>!D3 C3 |!p! G3- GAG | c3 c3 |!<(! F3- FG!<)!F |!>(! c3!>)! c3 | D3 A3 | %53
w: A- men.|A\- * ve Ma-|ri- a,|A\- * ve Ma-|ri- a,|A- ve,|
"^rall."[Q:1/4=50] !fermata!G6 | !fermata!c6 |] %55
w: A-|ve.|
V:2
!mf!!<(! (CDE)!<)!!>(! (ED)C!>)! |!<(! (FGA)!<)!!>(! C3!>)! | (C2 A,) D2 D |!>(! E3!>)! D2 z | %4
w: A\- * * ve * Ma-|ri\- * * a,|A\- * ve Ma-|ri- a,|
 C3 D3 |[M:6/8] C3 A2 G | (^FG)A!>(! D3!>)! | ^F3 G3 | (G!courtesy!=F)E!<(! F2 F!<)! | F6 | %10
w: gra- ti-|a ple- na:|Do\- * mi- nus|te- cum:|be\- * ne- di- cta|tu|
 F3- FAG | F2 F F2!f! G | (e2 d) (c2 B) | A2 A F2 F | C2 C C2"^rall." B, | B,3 C2 z | z3 z!p! DD | %17
w: in * mu- li-|e- ri- bus, et|be\- * ne\- *|di- ctus fru- ctus|ven- tris tu- i,|Je- sus.|Be- ne-|
 G2 G GBA | G2 G G (ED) | B2 B (BA)G | ^F z z z DD | c3 B3 | (=FE)D A2 E | ^C3 D3 | z3 z DD | %25
w: di- cta tu, be- ne-|di- cta tu in *|mu- li- e\- * ri-|bus, be- ne-|di- ctus|fru\- * ctus ven- tris|tu- i.|Be- ne-|
 G2 G"^cresc." (BA)G | !>!F3 !>!F3 | B3 B3 | B3- B2 B |!f! c3 c3 | B6 | B2 z z3 | %32
w: di- ctus fru\- * ctus|ven- tris|tu- i,|ven\- * tris|tu- i,|Je-|sus.|
!p!!<(! (CDE)!<)!!>(! (ED)C!>)! |!<(! (FGA)!<)!!>(! C3!>)! | (C2 A,) D2 D |!>(! E3 D3!>)! | C3 D3 | %37
w: San\- * * cta * Ma-|ri\- * * a,|San\- * cta Ma-|ri- a,|ma- ter|
 (C3 A2) G | (^FGA) D2 D | ^F3 G3 | G=FE F3 | F6 | F3- F2 G | F2 F F3 |!f!{E} (e2 d) c2 B | A3 F3 | %46
w: De\- * i,|o\- * * ra pro|no- bis,|o- ra pro no-|bis|pec\- * ca-|to- ri- bus,|nunc * et in|ho- ra|
 C2 C C2 B, | B,3 C3 |!p! CDC (C2 G) | ^F3- F2 z | CDC (C2 F) | E3- E2 z | D3 D3 | !fermata!D6 | %54
w: mor- tis no- strae,|A- men.|A- ve Ma- ri\- *|a, *|A- ve Ma- ri\- *|a, *|A- ve,|A-|
 !fermata!E6 |] %55
w: ve.|
V:3
!mf!!<(! (EFG)!<)!!>(! (GF)E!>)! |!<(! (ABc)!<)!!>(! F3!>)! | (Adc) B2 B |!>(! c3!>)! B2 z | %4
w: A\- * * ve * Ma-|ri\- * * a,|A- * * ve Ma-|ri- a,|
 cBA ^G3 |[M:6/8][K:treble-8] A6 | (AB)c!>(! ^F3!>)! | c3 B3 | c3!<(! d3!<)! | d2 d c2 B | %10
w: gra- ti- a ple-|na:|Do\- * mi- nus|te- cum:|be- ne-|di- cta tu in|
 (cd)e f2 e | (d3 c2)!f! B | c3 c3 | c2 c ^c2 d | G2 G A2"^rall." F | F3 E2 z |!p! (BG)c B G2 | %17
w: mu\- * li- e- ri-|bus, * et|be- ne-|di- ctus fru- ctus|ven- tris tu- i|Je- sus.|Be\- * ne- di- cta|
 d6 | dBe d G2 | g3 z3 | (dcB) (AG^F) | ^F3 G3 | (^GA)B (cB)A | A3 A3 | BGc"^cresc."!>(! B!>)! G2 | %25
w: tu|in mu- li- e- ri-|bus,|be\- * * ne\- * *|di- ctus|fru\- * ctus ven\- * tris|tu- i.|Et be- ne- di- ctus|
 =f3-"^cresc." f2 e | (dc)B g2 f | !>!f3 !>!f3 | (fe)d (fg)f |!f! d6- | d6 | d2 z z3 | %32
w: fru\- * ctus|ven\- * tris tu- i,|Je- sus,|ven\- * tris tu\- * i,|Je\-||sus.|
!p!!<(! (EFG)!<)!!>(! (GF)E!>)! |!<(! (ABc)!<)!!>(! F3!>)! | (Adc) B2 B |!>(! c3 B3!>)! | %36
w: San\- * * cta * Ma-|ri\- * * a,|San\- * * cta Ma-|ri- a,|
 (cB)A ^G3 | A6 | (ABc) ^F2 F | c3 B3 | c3 d2 d | d3 (c2 B) | (cd)e f2 e | d6 |!f! c3 c2 c | %45
w: ma\- * ter De-|i,|o\- * * ra pro|no- bis,|o- ra pro|no- bis *|pec\- * ca- to- ri-|bus,|nunc et in|
 (c3 ^c2) d | G2 G A2 F | F3 EGc |!p! _B6 | A6 | _A6 | G6 | c3 c3 | (c3 !fermata!B3) | %54
w: ho\- * ra|mor- tis no- strae,|A- men, A- ve,|A-|ve,|A-|ve,|A- ve,|A\- *|
 !fermata!G6 |] %55
w: ve.|
V:4
!mf! C,6- |!<(! C,3!<)!!>(! (F,G,)A,!>)! | F,3 G,2 G, |!>(! (C,E,F,) G,2!>)! z |!<(! C,3!<)! B,,3 | %5
w: A\-|* ve * Ma-|ri- a, Ma-|ri\- * * a,|gra- ti-|
[M:6/8] A,,3 C,2 ^C, | D,2 D,!>(! D,3!>)! | D,3 G,3 | F,3!<(! D,3!<)! | G,2 G, G,2 G, | %10
w: a ple- na:|Do- mi- nus|te- cum:|be- ne-|di- cta tu in|
 F,2 E, D,2 D, | G,3- G,2!f! G, | (C2 B,) (A,2 G,) | F,2 F, F,2 F, | G,2 G, G,,2"^rall." G,, | %15
w: mu- li- e- ri-|bus, * et|be\- * ne\- *|di- ctus fru- ctus|ven- tris tu- i,|
 G,,3 C,2 z |!p! (G,3- G,C)B, | G,2 G, G,3 | G,3- G,G,G, | G,2 G, G,3 | D,6- | D,6 | D,6 | %23
w: Je- sus.|Be\- * * ne-|di- cta tu|in * mu- li-|e- ri- bus,|be\-||ne-|
 E,3 D,3 | G,3- G,CB, | G,6 |"^cresc." G,6 | G,3 G,3 | G,3 G,3 |!f! _A,3 A,3 | G,6 | G,2 z z3 | %32
w: di- ctus.|Et * be- ne-|di-|ctus|fru- ctus|ven- tris|tu- i,|Je-|sus.|
!p! C,6- | C,3 (F,G,)A, | F,3 G,2 G, | (C,E,F,) G,3 | C,3 B,,3 | (A,,3 C,2) ^C, | D,3 D,2 D, | %39
w: San\-|* cta * Ma-|ri- a, Ma-|ri\- * * a,|ma- ter|De\- * i,|o- ra pro|
 D,3 G,3 | =F,3 D,3 | G,6 | (F,3 D,3) | G,6 |!f! (C2 B,) A,2 G, | F,3 F,3 | G,2 G, G,,2 G,, | %47
w: no- bis,|pec- ca-|to-|ri\- *|bus,|nunc * et in|ho- ra|mor- tis no- strae,|
 G,,3 C,3 |!p! C,6- | C,D,C, C,2 C, | C,6- | C,D,C, C,E,C, | A,3 F,3 | !fermata!G,6 | %54
w: A- men.|A\-|* ve Ma- ri- a|A\-|* ve Ma- ri- a, Ma-|ri- a,|A-|
 !fermata!C,6 |] %55
w: men.|
V:5
!mp! [E,C][F,D][G,E] [G,E][F,D][E,C] |[K:treble] ([A,F][B,G][CA]) [CA]3 | [A,CD]3- [G,B,D]3 | %3
 ([G,CE]3 [G,B,D]2) z | E3- [DE]3 |[M:6/8] [CE]3 e3 | [^Fd]3 [DF]3 | (A3 G)GG | A3- Adc | %9
 c2 B A2 G | [FA]3- [FA][FAd][EGc] | c2 B A2 G | e6 | e2 c [FA]2 F | %14
 [=CE]2 [G,CE] [A,CF]2 [F,B,D] | [B,D]3 C2 z | [B,D][G,B,][CE] [B,D] z z | %17
 [B,G][DB][CA] [B,G] z z | [Bd][GB][ce] [Bd] z z | g^fg bag | [d^f][ce][Bd] [Ac][GB][^FA] | %21
 [ce]3 [Bd]3 | [=Fd][Ec][DB] ABc | G2 A ^F3 | [B,D][G,B,][CE] [B,D] z z | %25
 [B,FG][DFB][CFA] [B,G]2 z | dcB B2 [DFB] | [FBd]3- [FBd]2 [FBd] | [FBd]3- [FBd][Ge][FBd] | %29
 [Fcf]3- [Fcf]2 [cf] | f3- f2 d | x6 |!p! CDE EDC | [A,F][B,G][CA] [CA]3 | D6 | [G,CE]3 [B,D]2 z | %36
 E6- | [A,CE]3 e3 | [^Fd]3 [CDF]3- | !>![CA]3 GGG | A3- Adc | (c2 B A2 G) | %42
!<(! [FA]3- [FA][FAd]!<)![EGc] | (c2 B A2 G) |!f! e6 | (e2 c) (A2 [DF]) | %46
 [CE]2 [CE] [A,CF]2 [B,D] | !>![G,B,D]3 [G,C] z z |!p! G3- GAG | ^F6 | =F3- FGF | E6 | D3 A3 | %53
 !fermata![DG]6 | !fermata![CEc]6 |] %55
V:6
!mp! C,6 | [F,,F,]3 F,,G,,A,, | F,,3 G,,3 | C,E,F, G,G,,G, | [C,G,C]3 [B,,^G,]3 | %5
[M:6/8] [A,,A,]3 A,3 | A,3 C3 | [D,C]3 [G,B,]2 z | C3 D3- | D3 C2 B, | CDE x3 | D3 C2 B, | C6 | %13
 C3 ^C2 D | x6 | [G,,F,G,]3- [C,E,G,]2 z | G,,3 G, z z | G,,3 G, z z | G,,3 G, z z | [G,D]6 | %20
 [D,D]6 | ^F,3 G,3 | ^G,A,B, CB,A, | A,6 | G,,3 G, z z | G,,3 G,2 z | B,A,G, x3 | x6 | x6 | x6 | %30
 x6 | x6 |!p! E,F,G, G,F,E, | [F,,F,]3 F,,G,,A,, | x6 | x6 | x6 | x3 A,3- | A,3 z3 | ^F,G,A, x3 | %40
 x3 D3- | D3 C2 B, | CDE x3 | x6 |!f! C6 | C3 x3 | x6 | x3 E,G,C |!p! x6 | x6 | x6 | x6 | x6 | %53
 G,6- | !fermata![C,G,]6 |] %55
V:7
 x6 |[K:treble] x6 | x6 | x6 | x6 |[M:6/8] x3 A2 G | x6 | DE^F x3 | G=FE F3- | F6 | x6 | F3- F2 x | %12
 e2 d c2 B | A3 x3 | x6 | x6 | x6 | x6 | x6 | B6 | x6 | x6 | x3 E3 | ^C3 DDD | x6 | x6 | %26
 F3- [DF]2 x | x6 | x6 | x6 | [FB]6- | [FB]2 z z3 | x6 | x6 | [A,C]3 [G,B,]3 | x6 | %36
 [G,C]3 [^G,D]3 | x3 A2 G | x6 | DEF x3 | G=FE F3 | F6 | x6 | [DF]6 | e2 d c2 B | A3 [^CF]2 x | %46
 x6 | x6 | C6- | CDC C3 | C6- | CDC C3 | x6 | x6 | x6 |] %55
V:8
 x6 | x6 | x6 | x6 | x6 |[M:6/8] x3 C,2 ^C, | D,6 | ^F,G,A, x3 | (!courtesy!=F,3 D,3 | G,6) | %10
 F,2 E, D,3 | G,6 | C2 B, A,2 G, | F,6 | G,2 G,, G,,2"^rall." G,, | x6 | x6 | x6 | x6 | x6 | x6 | %21
 D,6 | D,6 | E,3 D,3 | x6 | x6 | G,3- G,2 G, | G,B,A, G,3 | G,ED G,3 | _A,,C,F, _A,CF | [G,D]6- | %31
 [G,D]2 z z3 | C,6 | x6 | F,,3 G,,3 | C,E,F, G,G,,G, | C,3 B,,3 | A,,3 C,2 ^C, | D,6 | %39
 D,3 [G,B,]2 z | [=F,C]3 D,3 | G,6 | F,3 D,3 | G,6 | C2 B, A,2 G, | F,6 | %46
 G,2 [G,,G,] G,,2 [G,,F,] | [G,,F,]3 C,3 | [C,-_B,]6 | [C,A,]6 | [C,-_A,]6 | [C,G,]6 | [F,A,CD]6 | %53
 [G,C]3 !fermata![G,,B,]3 | x6 |] %55

